brandFactory_export/2.Regular/Flecha Abajo Derecha_2Regular.svg

<?xml version="1.0" encoding="UTF-8"?>
<svg width="24px" height="24px" viewBox="0 0 24 24" version="1.1" xmlns="http://www.w3.org/2000/svg" xmlns:xlink="http://www.w3.org/1999/xlink">
    <title>2.Regular/Flecha Abajo Derecha_2Regular</title>
    <g id="Symbols" stroke="none" stroke-width="1" fill="none" fill-rule="evenodd">
        <g id="2.Regular/Flecha-Abajo-Derecha_2Regular" fill="#5CB615" fill-rule="nonzero">
            <path d="M21.2336134,22.3764706 C21.2033613,22.3764706 21.1731092,22.3764706 21.1394958,22.3731092 L6.56470588,22.3663866 L6.5512605,22.3663866 C6.04705882,22.3663866 5.62689076,22.0907563 5.41848739,21.6302521 C5.17310924,21.0823529 5.28403361,20.3731092 5.67731092,19.9428571 C5.68403361,19.9361345 5.6907563,19.9294118 5.69411765,19.9226891 L8.54789916,17.0689076 L2.66554622,11.3210084 L2.65882353,11.3142857 C1.78487395,10.4403361 1.79495798,9.43193277 2.6789916,8.54789916 L8.7092437,2.4907563 L8.72941176,2.47058824 C9.14621849,2.08739496 9.57983193,1.94285714 10.0235294,2.03697479 C10.4268908,2.12436975 10.7495798,2.4 11.0117647,2.66218487 L11.0285714,2.6789916 L16.8033613,8.81680672 L19.8991597,5.7210084 L19.9092437,5.71092437 C20.3058824,5.33109244 20.9815126,5.22016807 21.5159664,5.4487395 C22.0134454,5.66386555 22.309062,6.13109244 22.3058824,6.70252101 L22.3058824,21.2067227 C22.3294118,21.5428571 22.2218487,21.8453782 22,22.0672269 C21.8016807,22.2689076 21.5327731,22.3764706 21.2336134,22.3764706 L21.2336134,22.3764706 Z M6.58823529,21.0756303 L21.0151261,21.0823529 L21.0151261,6.70588235 L21.0151261,6.70252101 C21.0151261,6.67226891 21.0117647,6.65210084 21.0084034,6.64201681 C20.9647059,6.61848739 20.8436975,6.62184874 20.7966387,6.65210084 L17.6168067,9.83193277 C17.1663866,10.2823529 16.4268908,10.2722689 15.9663866,9.80840336 L15.9529412,9.79495798 L10.097479,3.57310924 C9.89243697,3.37142857 9.80168067,3.3210084 9.76806723,3.30756303 C9.74789916,3.31764706 9.69747899,3.34453782 9.61344538,3.41848739 L3.59327731,9.46218487 C3.40504202,9.65042017 3.30084034,9.82184874 3.29742273,9.94285714 C3.29411765,10.0941176 3.44201681,10.2756303 3.5697479,10.4 L9.53613445,16.2285714 L9.54285714,16.2352941 C10.0033613,16.6957983 10.0134454,17.4352941 9.56302521,17.8857143 L6.62521008,20.8235294 C6.58823529,20.8705882 6.57142857,21.0016807 6.58823529,21.0756303 Z" id="Flecha-Abajo-Derecha_2Regular"></path>
        </g>
    </g>
</svg>

<svg width="24" height="24" viewBox="0 0 24 24" xmlns="http://www.w3.org/2000/svg"><path d="M21.234 22.376c-.03 0-.06 0-.095-.003l-14.574-.007H6.55c-.504 0-.924-.275-1.133-.736-.245-.548-.134-1.257.26-1.687a.09.09 0 00.016-.02l2.854-2.854-5.882-5.748-.007-.007c-.874-.874-.864-1.882.02-2.766l6.03-6.057.02-.02c.417-.384.85-.528 1.295-.434.403.087.726.363.988.625l.017.017 5.774 6.138L19.9 5.72l.01-.01c.397-.38 1.073-.49 1.607-.262.497.215.793.682.79 1.254v14.504c.023.336-.084.638-.306.86-.198.202-.467.31-.766.31zm-14.646-1.3l14.427.006V6.703a.21.21 0 00-.007-.061.29.29 0 00-.211.01l-3.18 3.18c-.45.45-1.19.44-1.65-.024l-.014-.013-5.856-6.222c-.205-.202-.295-.252-.329-.265a.725.725 0 00-.155.11l-6.02 6.044c-.188.188-.292.36-.296.48-.003.152.145.334.273.458l5.966 5.829.007.006c.46.46.47 1.2.02 1.65l-2.938 2.939c-.037.047-.054.178-.037.252z" fill="#5CB615" fill-rule="nonzero"/></svg>
